!!!COM: Beethoven, Ludwig van
!!!CDT: 1770-1827
!!!OTL: Piano Sonata no. 17 in D minor
!!!OTP: tempest
!!!OMD: Largo---Allegro
!!!OPS: 31
!!!ONM: 2
!!!OMV: 1
!!!AGN: Sonata form
**kern	**kern	**dynam
*staff2	*staff1	*staff1/2
*Ipiano	*Ipiano	*Ipiano
*>[A,A1,A,A2,B]	*>[A,A1,A,A2,B]	*>[A,A1,A,A2,B]
*>norep[A,A2,B]	*>norep[A,A2,B]	*>norep[A,A2,B]
*>A	*>A	*>A
*clefF4	*clefG2	*
*k[b-]	*k[b-]	*
*d:	*d:	*
*M4/4	*M4/4	*
=1-	=1-	=1-
!!!OMD: Largo
!!FORM:	bars 1-96:	exposition
!!FORM:	bars 1-6:	first subject in D minor (tonic)
*MM40	*MM40	*
*ped	*	*
!	!	!LO:DY:rj
[1CC#: [1EE: [1AA:	2C#<: 2E<: 2A<:	pp
.	(4c#'	.
.	4e')	.
=2	=2	=2
*Xped	*	*
2.CC#;] 2.EE;] 2.AA;]	2.a;	.
!!!OMD: Allegro
*MM168	*MM168	*
4C#' 4A'	(8aL	p
.	8gJ)	.
=3	=3	=3
*MM168	*MM168	*
4D' 4A'	(8gL	.
.	8fJ)	.
4E 4A	(8fL	.
.	8eJ)	.
4F' 4A'	(8eL	.
.	8dJ)	.
4C#' 4A'	(8aL	.
.	8gJ)	.
=4	=4	=4
4D' 4A'	(8gL	.
.	8fJ)	.
4E' 4A'	(8fL	.
.	8eJ)	.
4F' 4A'	(8eL	.
.	8dJ)	<
4F#' 4d'	(8ddL	.
.	8ccnJ)	.
=5	=5	=5
4G' 4d'	(8ccL	.
.	8b-J)	.
4A' 4d'	(8b-L	.
.	8aJ)	.
4B-' 4d'	(8aL	.
.	8gJ)	.
4B-' 4d'	(8gL	.
.	8g#J)	.
!!LO:LB:g=original
=6	=6	=6
!!!OMD: Adagio
*MM60	*MM60	*
*	*^	*
2A 2d	(4.g#SsS	2fn	f >
.	16bnLL)	.	.
.	16aJJ	.	] p
2A; 2c#;	2a;	2e	.
*	*v	*v	*
=7	=7	=7
!!FORM:	bars 7-41.1:	Connecting episode between 1st and 2nd themes
!!!OMD: Largo
*MM40	*MM40	*
*ped	*	*
*	*	*^
!	!	!	!LO:DY:b=2:rj
[1EE: [1GG: [1Cn:	2E<: 2G<: 2cn<:	p	pp
.	(4e'	.	.
.	4g')	.	.
*	*	*v	*v
=8	=8	=8
*Xped	*	*
2.EE;] 2.GG] 2.C]	2.cc;	.
!!!OMD: Allegro
*MM168	*MM168	*
4E' 4c'	(8ccL	p
.	8b-XJ)	.
=9	=9	=9
*MM168	*MM168	*
4F' 4c'	(8b-L	.
.	8g#J)	<
4r	(8g#L	.
.	8aJ)	.
4r	(8aL	.
.	8ddJ)	.
4F#' 4d'	(8ddL	.
.	8ccJ)	.
=10	=10	=10
4G' 4d'	(8ccL	.
.	8aJ)	.
4r	(8aL<	.
.	8b-J)	.
4r	(8b-L	.
.	8ee-J)	.
4G' 4B-' 4e-'	(8ee-L	.
.	8ddJ)	.
=11	=11	=11
4r	(8ddL	.
.	8cc#J)	.
4G' 4A' 4c#' 4en'	(8cc#L	.
.	8bb-J)	.
4r	(8bb-L	.
.	(8eenJ)	.
4G' 4B-' 4c#' 4e'	8eeL	.
.	8ccc#J)	.
!!LO:LB:g=original
=12	=12	=12
4r	(8ccc#L	.
.	8ffJ)	.
4G#' 4Bn' 4d' 4f'	(8ffL	.
.	8dddJ)	.
4r	(8dddL	.
.	8ffJ)	.
4G#' 4B' 4d' 4f'	(8ffL	.
.	8fffJ)	.
=13	=13	=13
4A' 4d' 4f'	(8fffL	f
.	8ccc#J)	.
4r	(8ccc#L	.
.	8dddJ)	.
2r	(8dddL	.
.	8gg#J)	.
.	(8gg#L	.
.	8aaJ)	.
=14	=14	=14
1r	(8aaL	.
.	8eeJ)	.
.	(8eeL	.
.	8ffJ)	.
.	(8ffL	.
.	8cc#J)	.
.	(8cc#L	.
.	8ddJ)	.
=15	=15	=15
1r	(8ddL	.
.	8g#J)	.
.	(8g#L	.
.	8aJ)	.
.	(8aL	.
.	8eJ)	.
.	(8eL	.
.	8fJ)	.
=16	=16	=16
2r	(8fL	.
.	8c#J)	.
.	(8c#L	.
.	8dJ)	.
4r	(8dL	.
.	8B-J)	.
(8BB-L	(8B-L	sf
8AAJ)	8AJ)	.
!!LO:LB:g=original
=17	=17	=17
(8AAL	(8AL	.
8C#J)	8c#J)	.
(8C#L	(8c#L	.
8DJ)	8dJ)	.
(8DL	(8dL	.
8BB-J)	8B-J)	.
(8BB-L	(8B-L	sf
8AAJ)	8AJ)	.
=18	=18	=18
(8AAL	(8AL	.
8C#J)	8c#J)	.
(8C#L	(8c#L	.
8DJ)	8dJ)	.
(8DL	(8dL	.
8BB-J)	8B-J)	.
(8BB-L	(8B-L	sf
8AAJ)	8AJ)	.
=19	=19	=19
*^	*	*
4AA	[1AA	(8AL	.
.	.	8B-	.
!LO:DY:rj	!	!	!
[2.Dz [2.Fz	.	8Bn	.
.	.	8cJ	.
.	.	8c#L	.
.	.	8d	.
.	.	8e-	.
.	.	8enJ	.
*v	*v	*	*
=20	=20	=20
4AA] 4D] 4F]	8fL	.
.	8f#	.
4AA 4D 4F	8g	.
.	8g#J	.
4AA/ 4E/ 4G/	8aL	.
.	8b-	.
4AA/ 4E/ 4G/	8c#	.
.	8aJ)	.
=21	=21	=2
*^	*	*
!	!LO:DY:rj	!	!LO:DY:rj
(12d>\L	2DDz	1ryy	f
12A/	.	.	.
12F/J)	.	.	.
(12AL	.	.	.
12F	.	.	.
12AJ)	.	.	.
(12FL	4FF'	.	.
12A	.	.	.
12FJ)	.	.	.
(12AL	4AA'	.	.
12F	.	.	.
12AJ)	.	.	.
!!LO:LB:g=original
=22	=22	=22	=22
*Xtuplet	*	*	*
12FL	[1D	2r	.
12A	.	.	.
12FJ	.	.	.
12AL	.	.	.
12F	.	.	.
12AJ	.	.	.
12FL	.	4r	.
12A	.	.	.
12FJ	.	.	.
12AL	.	(4a	p
12F	.	.	.
12AJ	.	.	.
=23	=23	=23	=23
12FL	1D_	4g#	.
12A	.	.	.
12FJ	.	.	.
12AL	.	4a	.
12F	.	.	.
12AJ	.	.	.
12FL	.	4b-/	.
12A	.	.	.
12FJ	.	.	.
12AL	.	4a)	.
12F	.	.	.
12AJ	.	.	.
=24	=24	=24	=24
12FL	1D]	2a	.
12A	.	.	.
12FJ	.	.	.
12AL	.	.	.
12F	.	.	.
12AJ	.	.	.
12FL	.	2a	.
12A	.	.	.
12FJ	.	.	.
12AL	.	.	.
12F	.	.	.
12AJ	.	.	.
=25	=25	=25	=25
!	!	!	!LO:DY:rj
12a>\L	2EE	1r	f
12c#/	.	.	.
12GJ/	.	.	.
12c#L	.	.	.
12G	.	.	.
12c#J	.	.	.
12GL	4GG'	.	.
12c#	.	.	.
12GJ	.	.	.
12c#L	4C#'	.	.
12G	.	.	.
12c#J	.	.	.
!!LO:LB:g=original
=26	=26	=26	=26
12GL	[1Ez	2r	.
12c#	.	.	.
12GJ	.	.	.
12c#L	.	.	.
12G	.	.	.
12c#J	.	.	.
12GL	.	4r	.
12c#	.	.	.
12GJ	.	.	.
12c#L	.	(4a	p
12G	.	.	.
12c#J	.	.	.
=27	=27	=27	=27
12GL	1E_	4g#	.
12c#	.	.	.
12GJ	.	.	.
12c#L	.	4a	.
12G	.	.	.
12c#J	.	.	.
12GL	.	4b-/	.
12c#	.	.	.
12GJ	.	.	.
12c#L	.	4a)	.
12G	.	.	.
12c#J	.	.	.
=28	=28	=28	=28
12GL	1E]	2a	.
12c#	.	.	.
12GJ	.	.	.
12c#L	.	.	.
12G	.	.	.
12c#J	.	.	.
12GL	.	2a	.
12c#	.	.	.
12GJ	.	.	.
12c#L	.	.	.
12G	.	.	.
12c#J	.	.	.
*v	*v	*	*
=29	=29	=29
*	*Xtuplet	*
2FF	12aL	f
.	12d	.
.	12AJ	.
.	12dL	.
.	12A	.
.	12dJ	.
4AA'	12AL	.
.	12d	.
.	12AJ	.
4D'/	12dL	.
.	12A	.
.	12dJ	.
!!LO:LB:g=original
=30	=30	=30
*^	*	*
12AL	1F	2r	.
12d	.	.	.
12AJ	.	.	.
12dL	.	.	.
12A	.	.	.
12dJ	.	.	.
!	!	!LO:DY:a:rj	!
12AL	.	4dd'z	.
12d	.	.	.
12AJ	.	.	.
12dL	.	4r	.
12A	.	.	.
12dJ	.	.	.
*v	*v	*	*
=31	=31	=31
2GG#	12eL	.
.	12Bn	.
.	12eJ	.
.	12BL	.
.	12e	.
.	12BJ	.
4BBn'	12eL	.
.	12B	.
.	12eJ	.
4E'	12BL	.
.	12e	.
.	12BJ	.
=32	=32	=32
*^	*	*
12BnL	1G#	2r	.
12e	.	.	.
12BJ	.	.	.
12eL	.	.	.
12B	.	.	.
12eJ	.	.	.
!	!	!LO:DY:a:rj	!
12BL	.	4ee'z	.
12e	.	.	.
12BJ	.	.	.
12eL	.	4r	.
12B	.	.	.
12eJ	.	.	.
*v	*v	*	*
=33	=33	=33
2AA	12fL	<
.	12c	.
.	12fJ	.
.	12cL	.
.	12f	.
.	12cJ	.
4C'	12fL	.
.	12c	.
.	12fJ	.
4F'	12cL	.
.	12f	.
.	12cJ	.
!!LO:LB:g=original
=34	=34	=34
*^	*	*
12cL	1A	2r	.
12f	.	.	.
12cJ	.	.	.
12fL	.	.	.
12c	.	.	.
12fJ	.	.	.
!	!	!LO:DY:a:rj	!
12cL	.	4ff'z	.
12f	.	.	.
12cJ	.	.	.
12fL	.	4r	.
12c	.	.	.
12fJ	.	.	.
*v	*v	*	*
=35	=35	=35
2BBn	12g#L	.
.	12d	.
.	12g#J	.
.	12dL	.
.	12g#	.
.	12dJ	.
4D'	12g#L	.
.	12d	.
.	12g#J	.
4G#'	12dL	.
.	12g#	.
.	12dJ	.
*clefG2	*	*
=36	=36	=36
*^	*	*
12dL	1Bn	2r	.
12g#	.	.	.
12dJ	.	.	.
12g#L	.	.	.
12d	.	.	.
12g#J	.	.	.
!	!	!LO:DY:a:rj	!
12dL	.	4gg#'z	.
12g#	.	.	.
12dJ	.	.	.
12g#L	.	4r	.
12d	.	.	.
12g#J	.	.	.
*v	*v	*	*
*clefF4	*	*
=37	=37	=37
2C	12aL	.
.	12e	.
.	12aJ	.
.	12eL	.
.	12a	.
.	12eJ	.
4A'	12aL	.
.	12e	.
.	12aJ	.
4c'	12eL	.
.	12a	.
.	12eJ	.
*clefG2	*	*
!!LO:LB:g=original
=38	=38	=38
*	*^	*
1d#z 1f#z	2rff	12aL	ff
.	.	12cc	.
.	.	12aJ	.
.	.	12ccL	.
.	.	12a	.
.	.	12ccJ	.
!	!LO:DY:rj	!	!
.	4aaz	12aL	.
.	.	12cc	.
.	.	12aJ	.
.	4r	12ccL	.
.	.	12a	.
.	.	12ccJ	.
=39	=39	=39	=39
1d#z 1f#z	2rff	12aL	.
.	.	12cc	.
.	.	12aJ	.
.	.	12ccL	.
.	.	12a	.
.	.	12ccJ	.
!	!LO:DY:rj	!	!
.	4aaz	12aL	.
.	.	12cc	.
.	.	12aJ	.
.	4r	12ccL	.
.	.	12a	.
.	.	12ccJ	.
=40	=40	=40	=40
1d#z 1f#z	2rff	12aL	.
.	.	12cc	.
.	.	12aJ	.
.	.	12ccL	.
.	.	12a	.
.	.	12ccJ	.
!	!LO:DY:rj	!	!
.	4aaz	12aL	.
.	.	12cc	.
.	.	12aJ	.
.	4r	12ccL	.
.	.	12a	.
.	.	12ccJ	.
*clefF4	*	*	*
=41	=41	=41	=41
8EL	4gg#	4g# 4bn	fp
8e	.	.	.
!!FORM:	bars 41.2-63:	second subject in A minor
8Bn 8dn	4r	4r	.
8eJ	.	.	.
8fnL	4r	4r	.
8e	.	.	.
8B 8d	(8bbnL	4ryy	.
8eJ	8gg#J)	.	.
*	*v	*v	*
!!LO:LB:g=original
=42	=42	=42
8EL	(8eeL	.
8e	8ffJ)	.
8Bn 8d	(8ffL	.
8eJ	8ddJ)	.
8fL	4r	.
8e	.	.
8B 8d	(8bbnL	.
8eJ	8gg#J)	.
=43	=43	=43
8EL	(8eeL	.
8e	8ffJ)	.
8Bn 8d	(8ffL	.
8eJ	8ddJ)	.
8fL	4r	.
8e	.	.
8B 8d	(8bbnL	.
8eJ	8gg#J)	.
=44	=44	=44
8EL	(8eeL	.
8e	8ffJ)	.
8Bn 8d	(8ffL	.
8eJ	8ddJ)	.
8EL	(8ddL	.
8e	8ccJ)	.
8G# 8B	(8ccL	.
8eJ	8bnJ)	.
=45	=45	=45
8EL	(8bnL	.
8e	8ccJ)	.
8A 8c	4a\	.
8eJ	.	.
8fL	4r	.
8e	.	.
8A 8c	(8cccL	.
8eJ	8aaJ)	.
=46	=46	=46
8EL	(8dd#L	.
8e	8eeJ)	.
8A 8c	(8eeL	.
8eJ	8ccJ)	.
8fL	4r	.
8e	.	.
8A 8c	(8cccL	.
8eJ	8aaJ)	.
!!LO:LB:g=original
=47	=47	=47
8EL	(8dd#L	.
8e	8eeJ)	.
8A 8c	(8eeL	.
8eJ	8ccJ)	.
8fL	4r	.
8e	.	.
8A 8c	(8cccL	.
8eJ	8aaJ)	.
=48	=48	=48
8EL	(8dd#L	.
8e	8eeJ)	.
8A 8c	(8eeL	.
8eJ	8ccJ)	.
8EL	(8ccL	.
8e	8bnJ)	.
8A 8c	(8bL<	.
8eJ	8aJ)	.
=49	=49	=49
8EL	(8aL<	.
8e	8g#J)	.
8Bn 8d	4bn'	.
8eJ	.	.
8fL	4r	.
8e	.	.
8B 8d	(8fffL	<
8eJ	8dddJ)	.
=50	=50	=50
8EL	(8ccc#L	.
8e	8dddJ	.
8Bn 8d	4bbn')	.
8eJ	.	.
8fL	4r	.
8e	.	.
8B 8d	(8fffL	.
8eJ	8dddJ)	.
=51	=51	=51
8EL	(8ccc#L	.
8e	8dddJ	.
8Bn 8d	4bbn')	.
8eJ	.	.
8fL	4r	.
8e	.	.
8B 8d	(8fffL	.
8eJ	8dddJ)	.
!!LO:LB:g=original
=52	=52	=52
4E 4Bn 4d	(8bbnL	f
.	8dddJ)	.
4r	(8gg#L	.
.	8bbJ)	.
2r	(8ffL	.
.	8gg#J)	.
.	(8ddL	.
.	8ffJ)	.
=53	=53	=53
1r	(8bnL	.
.	8ddJ)	.
.	(8g#L	.
.	8bJ)	.
.	(8fL	.
.	8g#J)	.
.	(8dL	.
.	8fJ)	.
=54	=54	=54
4r	(8BnL	.
.	8dJ)	.
*	*clefF4	*
(8GG#L	(8G#L	.
8BBnJ	8BnJ	.
8DDL	8DL	.
8BB	8B	.
8GG#	8G#	.
8DDJ)	8DJ)	.
=55	=55	=55
4CC'	4C'\	.
4CC' 4EE' 4AA'	4C' 4E' 4A'	.
[2DD [2FF [2BB-X	[2D [2F [2B-X	sf
=56	=56	=56
*^	*^	*
(2BB-]	1DD] 1FF]	(2B-]	1D] 1F]	.
4AA	.	4A	.	.
4GG#	.	4G#	.	.
*v	*v	*	*	*
*	*v	*v	*
=57	=57	=57
4CC' 4EE' 4AA')	4C' 4E' 4A')	.
*	*clefG2	*
4C' 4E' 4A'	4c' 4e' 4a'	.
[2D [<2F [>2B-X	[2d [2f [2b-X	sf
!!LO:LB:g=original
=58	=58	=58
*^	*^	*
(2B-]	1D] 1F]	(2b-]	1d] 1f]	.
4A	.	4a	.	.
4G#	.	4g#	.	.
*v	*v	*	*	*
*	*v	*v	*
=59	=59	=59
4C' 4E' 4A')	4c' 4e' 4a')	.
*clefG2	*	*
4c' 4e'	4a' 4aa'	.
[2d [2f	[2b-X [2bb-X	sf
=60	=60	=60
4d] 4f]	4b-] 4bb-]	.
4d#' 4f#'	4bn' 4bbn'	.
[2e [2a	[2cc [2ccc	sf
=61	=61	=61
*^	*	*
4e] 4a]	4ryy	4cc] 4ccc]	>
[2.a	(4e	4cc# (4ccc#	.
.	4fn	4dd 4ddd	.
.	4c#	4ee 4eee	.
=62	=62	=62	=62
4a]	4d)	4ff 4fff)	.
*clefF4	*	*	*
(4B-X 4d	4D	2f (2ff	p
4A 4cn	2E	.	.
4G# 4Bn	.	4e\ 4ee\	.
*v	*v	*	*
=63	=63	=63
!!FORM:	bars 63-90:	coda
4AA 4A)	4a)	.
4AAA'	4r	.
[2BBB-Xz	4r	.
.	4c#' 4e'	.
=64	=64	=64
(2BBB-]	4d' 4f'	.
!	!LO:DY:b	!
.	2fz 2ddz	.
4AAA	.	.
4GGG#)	4f' 4dd'	.
!!LO:LB:g=original
=65	=65	=65
4AAA'	4e' 4cc#'	.
4AAA'	4r	.
[2BBB-z	4r	.
.	4c#' 4e'	.
=66	=66	=66
(2BBB-]	4d' 4f'	.
.	2ddz 2ffz	.
4AAA	.	.
4GGG#)	4dd' 4ff'	.
=67	=67	=67
4AAA'	4cc#' 4ee'	.
4AAA'	4r	.
!LO:DY:rj	!	!
[2BBB-z	4r	.
.	4c#' 4e'	.
=68	=68	=68
(2BBB-]	4d' 4f'	.
.	2ddz 2ffz	.
4AAA	.	.
4GGG#)	[4ddd [4fff	ff
=69	=69	=69
!	!	!LO:DY:b=2
(8GGGnL	4ddd'] 4fff']	p
8FFF#	.	.
8GGG	4r	.
8AAAJ	.	.
8BBBnL	4r	.
8GGG	.	.
8AAA	((4dd 4ff	p
8BBBJ	.	.
=70	=70	=70
8CCL	4cc' 4ee'))	.
8BBBn	.	.
8CC	4r	.
8DDJ	.	.
8EEL	4r	.
8DD#	.	.
8EE	((4ccc 4eee	.
8DD#J)	.	.
!!LO:LB:g=original
=71	=71	=71
(8EEL	4bbn' 4ddd'))	<
8DD#	.	.
8EE	4r	.
8FF#J	.	.
8GG#L	4r	.
8EE	.	.
8FF#	((4bn 4dd	.
8GG#J	.	.
=72	=72	=72
8AAL	4a' 4cc'))	.
8GG#	.	.
8AA	4r	.
8BBnJ	.	.
8CL	4r	.
8AA	.	.
8BB	[4aa (>4ccc	.
8CJ)	.	.
=73	=73	=73
*	*^	*
(8DL	4bbn')	4aa'y]	.
8C#	.	.	.
8D	4r	4r	.
8EJ	.	.	.
8FL	4r	4r	.
8D	.	.	.
8E	[4bn	(4a	.
8FJ	.	.	.
=74	=74	=74	=74
8EL	4bnX']	4g#'y)	.
8d#	.	.	.
8e	4r	4r	.
8d#J	.	.	.
8eL	4r	4r	.
8d#	.	.	.
8e	4ryy	4b 4gg#	.
[<8EJ)	.	.	.
*	*v	*v	*
=75	=75	=75
*^	*	*
(2c 2e	1E_	(8aaL	.
.	.	8ee	.
.	.	8cc	.
.	.	8cccJ	.
2Bn 2dn	.	8bbnL	.
.	.	8gg#	.
.	.	8ee	.
.	.	8dddJ	.
!!LO:LB:g=original
=76	=76	=76	=76
2A 2c	1E]	8cccL	.
.	.	8aa	.
.	.	8ee	.
.	.	8eeeJ	.
2G# 2Bn)	.	8ddd#L	<
.	.	8eee	.
.	.	8ddd#	.
.	.	8eeeJ)	.
*v	*v	*	*
=77	=77	=77
(8AL	2ee 2ccc (2eee	.
8E	.	.
8C	.	.
8AJ	.	.
8BnL	2dd 2bbn 2ddd	.
8G#	.	.
8E	.	.
8BJ	.	.
=78	=78	=78
8cL	2cc 2aa 2ccc	.
8A	.	.
8E	.	.
8eJ	.	.
8d#L	2bn 2gg# 2bbn)	.
8e	.	.
8d#	.	.
8eJ)	.	.
=79	=79	=79
*^	*	*
4r	2E	(8aaL	.
.	.	8ee	.
2c 2e	.	8cc	.
.	.	8cccJ	.
.	2E	8bbnL	.
.	.	8gg#	.
[4Bn [4dn	.	8ee	.
.	.	8dddJ	.
=80	=80	=80	=80
4B] 4d]	2E	8cccL	.
.	.	8aa	.
2A 2c	.	8ee	.
.	.	8eeeJ	.
.	2E	8ddd#L	.
.	.	8eee	.
4G# 4Bn	.	8ddd#	.
.	.	8eeeJ)	.
*v	*v	*	*
!!LO:LB:g=original
=81	=81	=81
*	*^	*
(8AL	4r	2.ee	.
8E	.	.	.
8C	2ccc (2eee	.	.
8AJ	.	.	.
8BnL	.	.	.
8G#	.	.	.
8E	[4bbn [4ddd	[4dd	.
8BJ	.	.	.
=82	=82	=82	=82
8cL	4bb] 4ddd]	4dd]	.
8A	.	.	.
8E	2aa 2ccc	2cc	.
8eJ	.	.	.
8d#L	.	.	.
8e	.	.	.
8d#	4gg# 4bbn)	4bn	.
8eJ)	.	.	.
*	*v	*v	*
=83	=83	=83
*^	*	*
4r	2E	(8aaL	.
.	.	8ee	.
(2c 2e	.	8cc	.
.	.	8cccJ	.
.	2E	8bbnL	.
.	.	8gg#	.
[4Bn [4d	.	8ee	.
.	.	8dddJ	.
=84	=84	=84	=84
4B] 4d]	2E	8cccL	.
.	.	8aa	.
2A 2c	.	8ee	.
.	.	8eeeJ	.
.	2E	8ddd#L	.
.	.	8eee	.
4G# 4Bn)	.	8ddd#	.
.	.	8eeeJ	.
=85	=85	=85	=85
(4AA	2AA	8cccL	<
.	.	8aa	.
4A	.	8ee	.
.	.	8eeeJ	.
4E	2E	8ddd#L	.
.	.	8eee	.
4G# 4Bn	.	8ddd#	.
.	.	8eeeJ	[[
!!LO:LB:g=original
=86	=86	=86	=86
4A	2A	8cccL	>
.	.	8aa	.
4c	.	8ee	.
.	.	8eeeJ	.
4E	2E	8ddd#L	.
.	.	8eee	.
4G# 4Bn)	.	8ddd#	.
.	.	8eeeJ)	]]
*v	*v	*	*
=87	=87	=87
4AA 4A	4aa'	.
4r	4r	.
*	*clefF4	*
2AAA 2AA	2A	p
=88	=88	=88
2AAA 2AA	2A	<
2AAA 2AA	2A	.
=89	=89	=89
*>A1	*>A1	*>A1
[1AAA [1AA	[1A	sf >
=90	=90	=90
1AAA] 1AA]	1A]	]]
=91	=91	=91
!!FORM:	bars 91-92:	connecting passage to repetition of the exposition
(>2GGG 2GG	(2G	p
2FFF 2FF	2F	>
=92	=92	=92
2EE	2E	.
4FF	4F	.
4DD)	4D)	.
=93:|!	=93:|!	=93:|!
*>A2	*>A2	*>A2
[1AAA [1AA	[1A	sf >
=94	=94	=94
1AAA] 1AA]	1A]	]]
=95	=95	=95
!!FORM:	bars 95-96:	connecting passage between exposition and development
[1GGG [1GG	[1G	p
=96	=96	=96
1GGG] 1GG]	1G]	.
*	*clefG2	*
!!LO:LB:g=original
=97||	=97||	=97||
!!FORM:	bars 97-147.1	development section
*>B	*>B	*>B
!!!OMD: Largo
*MM40	*MM40	*
*ped	*	*
(16FFF#qLL	.	pp
16AAAq	.	.
16DDq	.	.
16FF#q	.	.
16AAq	.	.
16Dq	.	.
16F#q	.	.
16AqJJ)	.	.
!	!LO:TX:a:i:t=g.	!
1r	2d	.
!	!LO:TX:a:i:t=d.	!
.	(4f#'	.
.	4a')	.
=98	=98	=98
1r;	2.dd;	.
*Xped	*	*
.	4r	.
=99	=99	=99
*ped	*	*
.	(16BBB#<qLL	pp
.	16DD#<q	.
.	16FF#<q	.
.	16AA<q	.
.	16BB#<q	.
!	!LO:TX:c:i:t=d.	!
.	16D#<q	.
.	16F#<qJJ	.
.	16AqLL	.
.	16B#q	.
.	16d#qJJ)	.
!	!LO:TX:a:i:t=g.	!
1ryy	(2f#	.
!	!LO:TX:a:i:t=d.	!
.	4a'	.
.	4dd#'	.
=100	=100	=100
1r;	2.ff#;)	.
*Xped	*	*
.	4r	.
=101	=101	=101
*ped	*	*
.	(16CC#<qLL	pp
.	16FF#<q	.
.	16AA#<q	.
.	16C#<q	.
.	16F#<qJJ	.
!	!LO:TX:c:i:rj:t=d.	!
.	16A#qLL	.
.	16c#q	.
.	16f#qJJ)	.
!	!LO:TX:a:i:t=g.	!
1r	2a#	.
!	!LO:TX:a:i:t=d.	!
.	(4cc#'	.
.	4ff#')	.
=102	=102	=102
1r;	1aa#;	.
*Xped	*	*
*	*clefF4	*
!!LO:LB:g=original
=103	=103	=103
!!!OMD: Allegro
*MM168	*MM168	*
*	*tuplet	*
2FFF#	12F# (12AnL	ff
.	12c#	.
.	12F# 12AJ)	.
.	(12c#L	.
.	12F# 12A	.
.	12c#J)	.
4AAAn'	(12F# 12AL	.
.	12c#	.
.	12F# 12AJ)	.
4CC#'	(12c#L	.
.	12F# 12A	.
.	12c#J)	.
=104	=104	=104
*	*Xtuplet	*
4FF#'	12F# 12AL	.
.	12c#	.
.	12F# 12AJ	.
4r	12c#L	.
.	12F# 12A	.
.	12c#J	.
4r	12F# 12AL	.
.	12c#	.
.	12F# 12AJ	.
*clefG2	*	*
(4cc#	12c#L	p
.	12F# 12A	.
.	12c#J	.
=105	=105	=105
4b#	12F# 12AL	.
.	12c#	.
.	12F# 12AJ	.
4cc#	12c#L	.
.	12F# 12A	.
.	12c#J	.
4dd	12F# 12AL	.
.	12c#	.
.	12F# 12AJ	.
4cc#)	12c#L	.
.	12F# 12A	.
.	12c#J	.
=106	=106	=106
2cc#	12F# 12AL	.
.	12c#	.
.	12F# 12AJ	.
.	12c#L	.
.	12F# 12A	.
.	12c#J	.
2cc#	12F# 12AL	.
.	12c#	.
.	12F# 12AJ	.
.	12c#L	.
.	12F# 12A	.
.	12c#J	.
*clefF4	*	*
!!LO:LB:g=original
=107	=107	=107
2GGG#	12E# 12BnL	f
.	12c#	.
.	12E# 12BJ	.
.	12c#L	.
.	12E# 12B	.
.	12c#J	.
4BBBn'	12E# 12BL	.
.	12c#	.
.	12E# 12BJ	.
4EE#'	12c#L	.
.	12E# 12B	.
.	12c#J	.
=108	=108	=108
4GG#'	12E# 12BnL	.
.	12c#	.
.	12E# 12BJ	.
4r	12c#L	.
.	12E# 12B	.
.	12c#J	.
4r	12E# 12BL	.
.	12c#	.
.	12E# 12BJ	.
*clefG2	*	*
(4cc#	12c#L	p
.	12E# 12B	.
.	12c#J	.
=109	=109	=109
4b#	12E# 12BnL	.
.	12c#	.
.	12E# 12BJ	.
4cc#	12c#L	.
.	12E# 12B	.
.	12c#J	.
4dd	12E# 12BL	.
.	12c#	.
.	12E# 12BJ	.
4cc#)	12c#L	.
.	12E# 12B	.
.	12c#J	.
=110	=110	=110
2cc#	12E# 12BnL	.
.	12c#	.
.	12E# 12BJ	.
.	12c#L	.
.	12E# 12B	.
.	12c#J	.
2cc#	12E# 12BL	.
.	12c#	.
.	12E# 12BJ	.
.	12c#L	.
.	12E# 12B	.
.	12c#J	.
*clefF4	*	*
!!LO:LB:g=original
=111	=111	=111
2AAA^	12F#L	.
.	12A 12c#	.
.	12F#J	.
.	12A 12c#L	.
.	12F#	.
.	12A 12c#J	.
4CC#'	12F#L	.
.	12A 12c#	.
.	12F#J	.
4FF#'	12A 12c#L	.
.	12F#	.
.	12A 12c#J	.
=112	=112	=112
4AA'	12F#L	.
.	12A 12c#	.
.	12F#J	.
4r	12A 12c#L	.
.	12F#	.
.	12A 12c#J	.
*clefG2	*	*
4ff#'z	12F#L	.
.	12A 12c#	.
.	12F#J	.
4r	12A 12c#L	.
.	12F#	.
.	12A 12c#J	.
*clefF4	*	*
=113	=113	=113
2BBBn^	12F#L	.
.	12Bn 12d	.
.	12F#J	.
.	12B 12dL	.
.	12F#	.
.	12B 12dJ	.
4DD'	12F#L	.
.	12B 12d	.
.	12F#J	.
4FF#'	12B 12dL	.
.	12F#	.
.	12B 12dJ	.
=114	=114	=114
4BBn'	12F#L	.
.	12Bn 12d	.
.	12F#J	.
4r	12B 12dL	.
.	12F#	.
.	12B 12dJ	.
*clefG2	*	*
4ff#'z	12F#L	.
.	12B 12d	.
.	12F#J	.
4r	12B 12dL	.
.	12F#	.
.	12B 12dJ	.
*clefF4	*	*
!!LO:LB:g=original
=115	=115	=115
2BBBnz	12GL	.
.	12Bn 12d	.
.	12GJ	.
.	12B 12dL	.
.	12G	.
.	12B 12dJ	.
4DD'	12GL	.
.	12B 12d	.
.	12GJ	.
!	!	!LO:HP:c:i:t=sempre crescendo
4GG'	12B 12dL	<
.	12G	.
.	12B 12dJ	.
=116	=116	=116
4BBn'	12GL	.
.	12Bn 12d	.
.	12GJ	.
4r	12B 12dL	.
.	12G	.
.	12B 12dJ	.
*clefG2	*	*
4gg'z	12GL	.
.	12B 12d	.
.	12GJ	.
4r	12B 12dL	.
.	12G	.
.	12B 12dJ	.
*clefF4	*clefG2	*
=117	=117	=117
2CCnz	12GL	.
.	12cn 12e	.
.	12GJ	.
.	12c 12eL	.
.	12G	.
.	12c 12eJ	.
4EE'	12GL	.
.	12c 12e	.
.	12GJ	.
4GG'	12c 12eL	.
.	12G	.
.	12c 12eJ	.
=118	=118	=118
4Cn'	12GL	.
.	12c 12e	.
.	12GJ	.
4r	12c 12eL	.
.	12G	.
.	12c 12eJ	.
*clefG2	*	*
4gg'z	12GL	.
.	12c 12e	.
.	12GJ	.
4r	12c 12eL	.
.	12G	.
.	12c 12eJ	.
*clefF4	*	*
!!LO:LB:g=original
=119	=119	=119
2CC#z	12AL	.
.	12c# 12e	.
.	12AJ	.
.	12c# 12eL	.
.	12A	.
.	12c# 12eJ	.
4EE'	12AL	.
.	12c# 12e	.
.	12AJ	.
4AA	12c# 12eL	.
.	12A	.
.	12c# 12eJ	.
=120	=120	=120
4C#'	12AL	.
.	12c# 12e	.
.	12AJ	.
4r	12c# 12eL	.
.	12A	.
.	12c# 12eJ	.
*clefG2	*	*
4aa'z	12AL	.
.	12c# 12e	.
.	12AJ	.
4r	12c# 12eL	.
.	12A	.
.	12c# 12eJ	.
*clefF4	*	*
=121	=121	=121
2DDz	12AL	.
.	12d 12fn	.
.	12AJ	.
.	12d 12fL	.
.	12A	.
.	12d 12fJ	.
4FF'	12AL	.
.	12d 12f	.
.	12AJ	.
4AA'	12d 12fL	.
.	12A	.
.	12d 12fJ	.
=122	=122	=122
4D'	12AL	.
.	12d 12f	.
.	12AJ	.
4r	12d 12fL	.
.	12A	.
.	12d 12fJ	.
*clefG2	*	*
4aa'z	12AL	.
.	12d 12f	.
.	12AJ	.
4r	12d 12fL	.
.	12A	.
.	12d 12fJ	.
*clefF4	*	*
!!LO:LB:g=original
=123	=123	=123
*Xbrackettup	*	*
*tuplet	*	*
12BBnz>	2r	.
12dL	.	.
12BnJ	.	.
12dL	.	.
12B	.	.
12dJ	.	.
!	!LO:DY:a:rj	!
12BL	4g#'z 4gg#'z	.
12d	.	.
12BJ	.	.
12dL	4r	.
12B	.	.
12dJ	.	.
=124	=124	=124
*Xtuplet	*	*
12BB-Xz>	2r	.
12dL	.	.
12B-XJ	.	.
12dL	.	.
12B-	.	.
12dJ	.	.
!	!LO:DY:rj:a	!
12B-L	4dd'z 4ddd'z	.
12d	.	.
12B-J	.	.
12dL	4r	.
12B-	.	.
12dJ	.	.
=125	=125	=125
8AA	8cc#' 8ccc#'	ff
(8AL	(8aL	.
8G#	8g#	.
8AJ	8aJ	.
8G#L	8g#L	.
8A	8a	.
8G#	8g#	.
8AJ)	8aJ)	.
=126	=126	=126
(8G#L	(8g#L<	.
8A	8a	.
8c# 8e	8cc# 8ee	.
8AJ)	8aJ)	.
(8d 8fL	8dd (8ffL	sf
8A	8a	.
8Bn 8d	8bn 8dd	.
8AJ)	8aJ)	.
!!LO:LB:g=original
=127	=127	=127
8c# (8eL	8cc# (8eeL	.
8A	8a	.
8c# 8e	8cc# 8ee	.
8AJ)	8aJ)	.
!	!	!LO:DY:rj
8d (8fL	8dd (8ffL	sf
8A	8a	.
8Bn 8d	8bn 8dd	.
8AJ)	8aJ)	.
=128	=128	=128
8c# (8eL	8cc# (8eeL	.
8A	8a	.
8c# 8e	8cc# 8ee	.
8AJ)	8aJ)	.
!	!	!LO:DY:rj
8d (8fL	8dd (8ffL	sf
8A	8a	.
8Bn 8d	8bn 8dd	.
8AJ)	8aJ)	.
=129	=129	=129
8c# (8eL	8cc# (8eeL<	.
8A	8a	.
8G#	8g#	.
8AJ)	8aJ)	.
(8G#L	(8g#L	.
8A	8a	.
8G#	8g#	.
8AJ)	8aJ)	.
=130	=130	=130
(8G#L	(8g#L	.
8A	8a	.
8C# 8E	8c# 8e	.
8AJ)	8aJ)	.
8D (8FL	(8d 8fL	sf
8A	8a	.
8BBn 8D	8Bn 8d	.
8AJ)	8aJ)	.
=131	=131	=131
8C# (8EL	(8c# 8eL	.
8A	8a	.
8C# 8E	8c# 8e	.
8AJ)	8aJ)	.
8D (8FL	(8d 8fL	sf
8A	8a	.
8BBn 8D	8Bn 8d	.
8AJ)	8aJ)	.
!!LO:LB:g=original
=132	=132	=132
8C# (8EL	(8c# 8eL	.
8A	8a	.
8C# 8E	8c# 8e	.
8AJ)	8aJ)	.
8D (8FL	(8d 8fL	sf
8A	8a	.
8BBn 8D	8Bn 8d	.
8AJ)	8aJ)	.
*	*clefF4	*
=133	=133	=133
(8C# 8EL	8c# (8eL	.
8AA	8A	.
8GG#	8G#	.
8AAJ)	8AJ)	.
(8GG#L	(8G#L	.
8AA	8A	.
8GG#	8G#	.
8AAJ)	8AJ)	.
=134	=134	=134
(8GG#L	(8G#L	.
8AA	8A	.
8C# 8E	8c# 8e	.
8AAJ)	8AJ)	.
(8BBn 8DL	8d (8fL	sf
8AA	8A	.
8D 8F	8Bn 8d	.
8AAJ)	8AJ)	.
=135	=135	=135
(8C# 8EL	8c# (8eL	.
8AA	8A	.
8C# 8E	8c# 8e	.
8AAJ)	8AJ)	.
(8BBn 8DL	8d (8fL	sf
8AA	8A	.
8D 8F	8Bn 8d	.
8AAJ)	8AJ)	.
=136	=136	=136
(8C# 8EL	8c# (8eL	.
8AA	8A	.
8C# 8E	8c# 8e	.
8AAJ)	8AJ)	.
(8BBn 8DL	8d (8fL	sf
8AA	8A	.
8D 8F	8Bn 8d	.
8AAJ)	8AJ)	.
!!LO:LB:g=original
=137	=137	=137
1AA 1C# 1E	1A 1c# 1e	.
=138	=138	=138
1AAA 1AA	1F 1A 1d	>
=139	=139	=139
1AAA 1AA	1E 1A 1c#	.
=140	=140	=140
1AAA 1AA	1D 1F 1B-X	.
=141	=141	=141
.	(16C#q/LL	.
.	16Eq/JJ	.
[1AAA [1AA	[1A)	p
=142	=142	=142
1AAA] 1AA]	1A]	.
=143	=143	=143
(2.BB-	(2.B-	sf
4AA	4A	.
=144	=144	=144
4GGn	4Gn	.
4FF	4F	.
4EE-	4E-	.
4DD	4D	.
=145	=145	=145
4CC#	4C#\	.
4GG	4G	.
4BB-	4B-	.
4AA	4A	.
=146	=146	=146
4GG	4G	.
4FF	4F	.
4EE-	4E-	.
4DD)	4D)	.
!!LO:LB:g=original
=147||	=147||	=147||
!!FORM: bars 147-232	recapitulation
!!FORM:	bars 147-156	first subject in original key of D minor
!!!OMD: Largo
*MM40	*MM40	*
*ped	*	*
1CC#: 1EEn: 1AA:	2C#: 2En: 2A:	pp
*	*clefG2	*
.	(4c#'	.
.	4e')	.
=148	=148	=148
*Xped	*	*
1r	[2a	.
!	!LO:TX:c:i:t=con expressione e semplice	!
.	8aL]	.
.	8a	.
.	8a	.
.	8b-J	.
=149	=149	=149
1r	(4a	.
.	[4g)	.
.	8..gL]	.
.	32gkk	.
.	8..ee	.
.	32ddJkk	.
=150	=150	=150
1r	4dd	.
.	(2cc#	.
.	4ee)	.
=151	=151	=151
1r	4.ee^	.
.	8g	.
.	4.b-/	.
.	8a	.
=152	=152	=152
2r	4g	.
.	4f	.
4r;	4r;	.
!!!OMD: Allegro
*MM168	*MM168	*
4C#' 4A'	(8aL	p
.	8gJ)	.
!!LO:LB:g=original
=153	=153	=153
*MM168	*MM168	*
4D' 4A'	(8gL	.
.	8fJ)	.
4E' 4A'	(8fL	.
.	8eJ)	.
4F' 4A'	(8eL	.
.	8dJ)	.
4C#' 4A'	(8aL	.
.	8gJ)	.
=154	=154	=154
4D' 4A'	(8gL	.
.	8fJ)	.
4E' 4A'	(8fL	.
.	8eJ)	.
4F' 4A'	(8eL	.
.	8dJ)	.
4F#' 4d'	(8ddL	.
.	8ccnJ)	.
=155	=155	=155
4G' 4d'	(8ccL	<
.	8b-J)	.
4A' 4d'	(8b-L	.
.	8aJ)	.
4B-' 4d'	(8aL	.
.	8gJ)	.
4B-' 4d'	(8gL	.
.	8g#J)	.
=156	=156	=156
!!!OMD: Adagio
*MM60	*MM60	*
*	*^	*
2A 2d	(4.g#SsS	2f	sf
.	16bnLL	.	.
.	16aJJ	.	p
2A; 2c#;	2a;)	2e	.
*	*v	*v	*
=157	=157	=157
!!FORM:	bars 157-175.1	connecting episode between first and second themes
!!!OMD: Largo
*MM40	*MM40	*
*ped	*	*
!	!	!LO:DY:b=2:rj
[1EE: [1GG: [1Cn:	2E<: 2G<: 2cn<:	pp
.	(4e'	.
.	4g')	.
=158	=158	=158
1EE;] 1GG;] 1C;]	1cc;	.
*Xped	*	*
!!LO:LB:g=original
=159	=159	=159
!LO:TX:a:i:t=con expressione e semplice	!	!
1r	2dd-	.
.	4..d-	.
.	16d-	.
=160	=160	=160
1r	(4c	.
.	[4B-)	.
.	8B-L]	.
.	8g	.
.	8g	.
.	8a-J	.
=161	=161	=161
1r	4.b-	.
.	8b-	.
.	4dd-	.
.	8ccL<	.
.	8gJ	.
=162	=162	=162
1r;	1a-;	.
=163	=163	=163
!!!OMD: Allegro
*MM168	*MM168	*
!	!	!LO:DY:rj
4EEE#' 4CC#' 4EE#'	4G#' 4c#' 4g#'	pp
4r	4r	.
4EEE#' 4CC#' 4EE#'	4G#' 4c#' 4g#'	.
4r	4r	.
=164	=164	=164
4EEE#' 4CC#' 4EE#'	4G#' 4c#' 4g#'	.
4r	4r	.
4EEE#' 4CC#' 4EE#'	4G#' 4c#' 4g#'	.
4r	4r	.
!!LO:LB:g=original
=165	=165	=165
4FFF# 4CC# 4FF#	(12anL	.
.	12f#	.
.	12c#J)	.
*	*tuplet	*
4rGG	(12A<L	<
.	12F#<	.
.	12C#<J)	.
2rGG	(12A<L	.
.	12F#<	.
.	12C#<J)	.
.	(<24AA<LL	.
.	24C#<	.
.	24F#<	.
.	24A<	.
.	24c#	.
.	24f#JJ)	.
=166	=166	=166
1r	(12aL	.
.	12f#	.
.	12c#J)	.
.	(12AL	.
.	12c#	.
.	12f#J)	.
.	(12aL	.
.	12cc#	.
.	12ff#J)	.
.	16aazLL	.
.	16ff#	.
.	16cc#	.
.	16aJJ	.
=167	=167	=167
4FF#' 4D' 4F#'	4A' 4d' 4a'	pp
4r	4r	.
4FF#' 4D' 4F#'	4A' 4d' 4a'	.
4r	4r	.
=168	=168	=168
4FF#' 4D' 4F#'	4A' 4d' 4a'	.
4r	4r	.
4FF#' 4D' 4F#'	4A' 4d' 4a'	.
4r	4r	.
!!LO:LB:g=original
=169	=169	=169
4GG'\ 4D'\ 4G'\	(12b-L	.
.	12g	.
.	12dJ)	.
4rGG	(12B-<L	.
.	12G<	.
.	12D<J)	.
2rGG	(12B-<L	.
.	12G<	.
.	12D<J)	.
.	(<24BB-<LL	.
.	24D<	.
.	24G<	.
.	24B-<	.
.	24d	.
.	24gJJ)	.
=170	=170	=170
1r	(12b-L	.
.	12g	.
.	12dJ)	.
.	(12B-L	.
.	12d	.
.	12gJ)	.
.	(12b-L	.
.	12dd	.
.	12ggJ)	.
.	16bb-zLL	.
.	16gg	.
.	16dd	.
.	16b-JJ	.
=171	=171	=171
*	*^	*
4G' 4B-' 4c#' 4e'	4cc#' 4ee'	4g' 4b-'	ff
4r	4r	4r	.
4G' 4B-' 4c#' 4e'	4cc#' 4ee'	4g' 4b-'	.
4r	4r	4r	.
=172	=172	=172	=172
4G' 4B-' 4c#' 4e'	4cc#' 4ee'	4g' 4b-'	.
4r	4r	4r	.
4G' 4B-' 4c#' 4e'	4cc#' 4ee'	4g' 4b-'	.
4r	4r	4r	.
*	*v	*v	*
!!LO:LB:g=original
=173	=173	=173
*	*Xtuplet	*
4G# 4Bn 4d 4f	12ffL	.
.	12dd	.
.	12bnJ	.
4r	12g#L	.
.	12f	.
.	12ddJ	.
2r	12bL	.
.	12g#	.
.	12fJ	.
.	12dL	.
.	12f	.
.	12g#J	.
=174	=174	=174
1r	12bnL	.
.	12dd	.
.	12ffJ	.
.	12gg#L	.
.	12bbn	.
.	12dddJ	.
.	(4fffz	.
.	4ddd	.
*clefG2	*	*
=175	=175	=175
!!FORM:	bars 175-197	second subject transposed to D minor (tonic)
8AL	4ccc#)	fp
8a	.	.
8e 8g	4r	.
8aJ	.	.
8b-XL	4r	.
8a	.	.
8e 8g	(8eeeL	.
8aJ	8ccc#J)	.
=176	=176	=176
8AL	(8aaL	.
8a	8bb-XJ)	.
8g	(8bb-L	.
8aJ	8ggJ)	.
8b-L	4r	.
8a	.	.
8e 8g	(8eeeL	.
8aJ	8ccc#J)	.
=177	=177	=177
8AL	(8aaL	.
8a	8bb-J)	.
8e 8g	(8bb-L	.
8aJ	8ggJ)	.
8b-L	4r	.
8a	.	.
8e 8g	(8eeeL	.
8aJ	8ccc#J)	.
!!LO:LB:g=original
=178	=178	=178
8AL	(8aaL	.
8a	8bb-J)	.
8e 8g	(8bb-L	.
8aJ	8ggJ)	.
8AL	(8ggL	.
8a	8ffJ)	.
8c# 8e	(8ffL	.
8aJ	8eeJ)	.
=179	=179	=179
8AL	(8eeL	.
8a	8ffJ)	.
8d 8f	4dd'	.
8aJ	.	.
8b-L	4r	.
8a	.	.
8d 8f	(8fffL	.
8aJ	8dddJ)	.
=180	=180	=180
8AL	(8gg#L	.
8a	8aaJ)	.
8d 8f	(8aaL	.
8aJ	8ffJ)	.
8b-L	4r	.
8a	.	.
8d 8f	(8fffL	.
8aJ	8dddJ)	.
=181	=181	=181
8AL	(8gg#L	.
8a	8aaJ)	.
8d 8f	(8aaL	.
8aJ	8ffJ)	.
8b-L	4r	.
8a	.	.
8d 8f	(8fffL	.
8aJ	8dddJ)	.
=182	=182	=182
8AL	(8gg#L	.
8a	8aaJ)	.
8d 8f	(8aaL	.
8aJ	8ffJ)	.
8AL	(8ffL	.
8a	8eeJ)	.
8d 8f	(8eeL	.
8aJ	8ddJ)	.
!!LO:LB:g=original
=183	=183	=183
8AL	(8ddL	.
8a	8cc#J)	.
8e 8g	4ee'	.
8aJ	.	.
8b-L	4r	.
8a	.	.
8e 8g	(8bb-L	<
8aJ	8ggJ)	.
=184	=184	=184
8AL	(8dd#L	.
8a	8eeJ)	.
8e 8g	4cc#'	.
8aJ	.	.
8b-L	4r	.
8a	.	.
8e 8g	(8bb-L	.
8aJ	8ggJ)	.
=185	=185	=185
8AL	(8dd#L	.
8a	8eeJ)	.
8e 8g	4cc#'	.
8aJ	.	.
8b-L	4r	.
8a	.	.
8e 8g	(8bb-L	.
8aJ	8ggJ)	.
=186	=186	=186
4A 4e 4g	(8eeL	f
.	8ggJ)	.
4r	(8cc#L	.
.	8eeJ)	.
2r	(8b-L	.
.	8cc#J)	.
.	(8gL	.
.	8b-J)	.
=187	=187	=187
1r	(8eL	.
.	8gJ)	.
.	(8c#L	.
.	8eJ)	.
.	(8B-L	.
.	8c#J)	.
*	*clefF4	*
.	(8GL	.
.	8B-J)	.
*clefF4	*	*
!!LO:LB:g=original
=188	=188	=188
4r	(8EL	.
.	8GJ)	.
(8CC#L	(8C#L>	.
8EEJ	8EJ	.
8GGGL	8GGL	.
8EE	8E	.
8CC#	8C#	.
8GGGJ)	8GGJ)	.
=189	=189	=189
4FFF'	4FF'	.
4FF' 4AA' 4D'	4F' 4A' 4d'	.
[2GG [2BB- [2E-	[2G [2B- [2e-	sf
=190	=190	=190
*^	*^	*
(2E-]	1GG] 1BB-]	(2e-]	1G] 1B-]	.
4D	.	4d	.	.
4C#)	.	4c#)	.	.
*v	*v	*	*	*
*	*v	*v	*
=191	=191	=191
4FF' 4AA' 4D'	4F' 4A' 4d'	.
*	*clefG2	*
4F' 4A' 4d'	4f' 4a' 4dd'	.
!	!	!LO:DY:rj
[2G [2B- [2e-	[2g/ [</2b- [>/2ee-	sf
=192	=192	=192
*^	*^	*
(2e-X]	1G] 1B-]	(2ee-X]	1g] 1b-]	.
4d	.	4dd	.	.
4c#)	.	4cc#)	.	.
*v	*v	*	*	*
*	*v	*v	*
=193	=193	=193
4F' 4A' 4d'	4f' 4a' 4dd'	.
*clefG2	*	*
4f' 4a'	4dd' 4ddd'	.
[2g [2b-	[2ee- [2ddd	sf
!!LO:LB:g=original
=194	=194	=194
4g] 4b-]	4ee-] 4ddd]	.
4g#' 4bn'	4een' 4ddd'	.
[2a/ [2ccn/	[2ff [2ddd	sf
=195	=195	=195
*	*^	*
4a/] 4cc/]	4ryy	4ff] 4ddd]	.
(4a/ 4cc/	2ddd	(4ff#	>
4b-X/ 4dd/	.	4gg	.
4f# 4cc	4ryy	(<4aa [4ddd	.
*	*v	*v	*
=196	=196	=196
*^	*	*
4g 4b-)	4ryy	4bb- 4ddd]))	.
(4e- 4g	4G	(2b- 2gg	p
4d 4f	2A	.	.
4c# 4en	.	4a 4aa	.
*v	*v	*	*
*clefF4	*	*
=197	=197	=197
!!FORM:	bars 197-232	coda
4D' 4d')	4dd')	f
4DD	4r	.
[2EE-z	4r	.
*	*clefF4	*
.	4F#' 4A'	.
=198	=198	=198
(2EE-]	4G' 4B-'	.
*	*clefG2	*
.	2B-z 2gz	.
4DD	.	.
4CC#)	4B-' 4g'	.
=199	=199	=199
4DD'	4A' 4f#'	.
4DD'	4r	.
[2EE-z	4r	.
*	*clefF4	*
.	4F#' 4A'	.
=200	=200	=200
(2EE-]	4G' 4B-'	.
*	*clefG2	*
.	2gz 2b-z	.
4DD	.	.
4CC#)	4g' 4b-'	.
!!LO:LB:g=original
=201	=201	=201
4DD'	4f#' 4a'	.
4DD'	4r	.
[2EE-z	4r	.
*	*clefF4	*
.	4F#' 4A'	.
=202	=202	=202
(2EE-]	4G' 4B-'	.
*	*clefG2	*
.	2gz 2b-z	.
4DD	.	.
4CC#)	[4gg [4bb-	ff
=203	=203	=203
!	!	!LO:DY:b=2
(8CCnL	4gg] 4bb-]	p
8BBBn	.	.
8CC	4r	.
8DDJ	.	.
8EEnL	4r	.
8CC	.	.
8DD	(4g 4b-	p
8EEJ	.	.
=204	=204	=204
8FFL	4f') 4a'	.
8EE	.	.
8FF	4r	.
8GGJ	.	.
8AAL	4r	.
8GG#	.	.
8AA	4ff (4aa	.
8GG#J)	.	.
=205	=205	=205
(>8AAL	4ee' 4gg')	.
8GG#	.	.
8AA	4r	.
8BBnJ	.	.
8C#L	4r	.
8AA	.	.
8BB	(4e 4g	.
8C#J	.	.
!!LO:LB:g=original
=206	=206	=206
8DL	4d') 4f'	.
8C#	.	.
8D	4r	.
8EJ	.	.
8FL	4r	<
8D	.	.
8E	[4dd (>4ff	.
8FJ)	.	.
=207	=207	=207
*	*^	*
(8GL	4ee')	4dd]	.
8F#	.	.	.
8G	4r	4r	.
8AJ	.	.	.
8B-XL	4r	4r	.
8G	.	.	.
8A	4ryy	[4ee (4ddd	.
8B-J	.	.	.
*	*v	*v	*
=208	=208	=208
8AL	4ee'] 4ccc#')	f
8G#	.	.
8A	4r	.
8G#J	.	.
8AL	4r	.
8G#	.	.
8A	4e 4cc#	.
[8AAJ)	.	.
=209	=209	=209
*^	*	*
(2F 2A	1AA_	(8ddL	p
.	.	8a	.
.	.	8f	.
.	.	8ffJ	.
2E 2Gn	.	8eeL	.
.	.	8cc#	.
.	.	8a	.
.	.	8ggJ	.
=210	=210	=210	=210
2D 2F	1AA]	8ffL	.
.	.	8dd	.
.	.	8a	.
.	.	8aaJ	.
2C# 2E)	.	8gg#L	.
.	.	8aa	.
.	.	8gg#	.
.	.	8aaJ)	.
*v	*v	*	*
!!LO:LB:g=original
=211	=211	=211
(>8DL	2a 2ff (2aa	.
8AA	.	.
8FF	.	.
8DJ	.	.
8EL	2gn 2ee 2ggn	.
8C#	.	.
8AA	.	.
8EJ	.	.
=212	=212	=212
8FL	2f 2dd 2ff	.
8D	.	.
8AA	.	.
8AJ	.	.
8G#L	2e\ 2cc#\ 2ee\)	.
8A	.	.
8G#	.	.
8AJ)	.	.
=213	=213	=213
*^	*	*
4r	2AA	(8ddL	.
.	.	8a	.
(2F 2A	.	8f	.
.	.	8ffJ	.
.	2AA	8eeL	.
.	.	8cc#	.
[4E [4Gn	.	8a	.
.	.	8ggJ	.
=214	=214	=214	=214
4E] 4G]	2AA	8ffL	.
.	.	8dd	.
2D 2F	.	8a	.
.	.	8aaJ	.
.	2AA	8gg#L	.
.	.	8aa	.
4C# 4E)	.	8gg#	.
.	.	8aaJ)	.
*v	*v	*	*
=215	=215	=215
*	*^	*
(>8DL	4r	2.a	.
8AA	.	.	.
8FF	2ff (2aa	.	.
8DJ	.	.	.
8EL	.	.	.
8C#	.	.	.
8AA	[4ee [4ggn	[4g	.
8EJ	.	.	.
!!LO:LB:g=original
=216	=216	=216	=216
8FL	4ee] 4gg]	4g]	.
8D	.	.	.
8AA	2dd 2ff	2f	.
8AJ	.	.	.
8G#L	.	.	.
8A	.	.	.
8G#	4cc# 4ee)	4e	.
8AJ)	.	.	.
*	*v	*v	*
=217	=217	=217
*^	*	*
4r	2AA	(8ddL	.
.	.	8a	.
(2F 2A	.	8f	.
.	.	8ffJ	.
.	2AA	8eeL	.
.	.	8cc#	.
[4E [4Gn	.	8a	.
.	.	8ggJ	.
=218	=218	=218	=218
4E] 4G]	2AA	8ffL	.
.	.	8dd	.
2D 2F	.	8a	.
.	.	8aaJ	.
.	2AA	8gg#L	.
.	.	8aa	.
4C# 4E)	.	8gg#	.
.	.	8aaJ	.
=219	=219	=219	=219
(4DD	2DD	8ffL	<
.	.	8dd	.
4D	.	8a	.
.	.	8aaJ	.
4AA	2AA	8gg#L	.
.	.	8aa	.
4C# 4E	.	8gg#	.
.	.	8aaJ	[[
=220	=220	=220	=220
4D	2D	8ffL	>
.	.	8dd	.
4F	.	8a	.
.	.	8aaJ	.
4AA	2AA	8gg#L	.
.	.	8aa	.
4C# 4E)	.	8gg#	.
.	.	8aaJ)	]]
*v	*v	*	*
=221	=221	=221
4DD 4D	4dd	p
4r	4r	.
2DD 2D	2d	<
!!LO:LB:g=original
=222	=222	=222
2DD 2D	2d	.
2DD 2D	2d	.
*	*clefF4	*
=223	=223	=223
*ped	*	*
(8DDL	[1F [1A [1d	pp
8AAA	.	.
8FFF	.	.
8FFJ	.	.
8DDL	.	.
8AAA	.	.
8AA	.	.
8FFJ	.	.
=224	=224	=224
8DDL	1F_ 1A_ 1d_	.
8AAA	.	.
8FFF	.	.
8FFJ	.	.
8DDL	.	.
8AAA	.	.
8AA	.	.
8FFJ	.	.
=225	=225	=225
8DDL	1F_ 1A_ 1d_	.
8AAA	.	.
8FFF	.	.
8FFJ	.	.
8DDL	.	.
8AAA	.	.
8AA	.	.
8FFJ	.	.
!!LO:LB:g=original
=226	=226	=226
8DDL	1F_ 1A_ 1d_	.
8AAA	.	.
8FFF	.	.
8FFJ	.	.
8DDL	.	.
8AAA	.	.
8AA	.	.
8FFJ	.	.
=227	=227	=227
8DDL	1F_ 1A_ 1d_	.
8AAA	.	.
8AA	.	.
8FFJ	.	.
8DDL	.	.
8AAA	.	.
8AA	.	.
8FFJ	.	.
=228	=228	=228
8DDL	1F_ 1A_ 1d_	.
8AAA	.	.
8AA	.	.
8FFJ	.	.
8DDL	.	.
8AAA	.	.
8AA	.	.
8FFJ)	.	.
=229	=229	=229
1DD	1F] 1A] 1d]	.
*Xped	*	*
*	*clefG2	*
=230	=230	=230
*ped	*	*
1DD 1AA 1D	1f 1a 1dd 1ff	.
=231	=231	=231
[1DD [1AA [1D	[1d [1f [1a [1dd	.
=232	=232	=232
1DD;] 1AA;] 1D;]	1d;] 1f;] 1a;] 1dd;]	.
*Xped	*	*
==	==	==
*-	*-	*-
!!!RDF**kern: > = above
!!!RDF**kern: < = below
!!!RDF**dynam: > = dim.
!!!verovio: beamFrenchStyle
!!!LOR: Durand 1915, plates 9327/9328, Paul Dukas, ed.
!!!PED: Dukas, Paul
!!!URL-vhv: https://verovio.humdrum.org/?file=beethoven/sonatas/sonata17-1.krn
!!!URL-pdf: https://github.com/craigsapp/beethoven-piano-sonatas/blob/master/reference-edition/sonata17-1.pdf
!!!ENC: Craig Stuart Sapp
!!!END: 2004/11/22
!!!EED: Craig Stuart Sapp
!!!EEV: 2021/07/04
